X:69
T:Behind the Haystack
M:6/8
R:jig
K:D
d2e fdB | d2e fdB | AFE EFE | AFE EFE |
d2e fdB | d2e fdB | AED DED | AED DED :|
|: B2B BAF | ABc dcB | AFE EDE | AFE EDD |
B2B BAF | ABc dcB | AED DED | AED DED :|
g3 f3 | ede fdB | AFE EDE | AFE EDD |
g3 f3 | ede fdB | AED DED | AED DED :|

